X:486
T:»All-valsen»,
R:vals
S:uppt. efter kusken Joh. Gullander, Klintehamn;
N:skall föreställa alfågelns läte.
O:Gotland, Klintehamn
M:3/4
L:1/8
K:D
A,2|D2 D2 D2|D2 D2 D2|DFAd f2|DFAd f2|egAAce|d2 AF D2|DFAd f2|DFAd f2|egAAce|d4::
d2|Lc>eAAce|Ld>fAAdf|Le>gAAce|Ld>fAAdf|Le>gAAce|Ld>fAAdf|Le>gAAce|d4:|
